x-pack/solutions/search/plugins/enterprise_search/public/assets/images/linear.svg

<svg width="40" height="40" viewBox="0 0 40 40" fill="none" xmlns="http://www.w3.org/2000/svg">
<path fill-rule="evenodd" clip-rule="evenodd" d="M15 2.5C14.3112 2.5 13.75 3.06 13.75 3.75V13.75C13.75 14.44 14.3112 15 15 15H25C25.6888 15 26.25 14.44 26.25 13.75V3.75C26.25 3.06 25.6888 2.5 25 2.5H15ZM25 17.5H15C12.9325 17.5 11.25 15.8175 11.25 13.75V3.75C11.25 1.6825 12.9325 0 15 0H25C27.0675 0 28.75 1.6825 28.75 3.75V13.75C28.75 15.8175 27.0675 17.5 25 17.5Z" fill="#535766"/>
<path fill-rule="evenodd" clip-rule="evenodd" d="M21.25 22.5V20H18.75V22.5H3.75V30H6.25V25H18.75V30H21.25V25H33.75V30H36.25V22.5H21.25Z" fill="#535766"/>
<path fill-rule="evenodd" clip-rule="evenodd" d="M5 35C4.31125 35 3.75 35.56 3.75 36.25C3.75 36.94 4.31125 37.5 5 37.5C5.68875 37.5 6.25 36.94 6.25 36.25C6.25 35.56 5.68875 35 5 35ZM5 40C2.9325 40 1.25 38.3175 1.25 36.25C1.25 34.1825 2.9325 32.5 5 32.5C7.0675 32.5 8.75 34.1825 8.75 36.25C8.75 38.3175 7.0675 40 5 40Z" fill="#00BFB3"/>
<path fill-rule="evenodd" clip-rule="evenodd" d="M20 35C19.3112 35 18.75 35.56 18.75 36.25C18.75 36.94 19.3112 37.5 20 37.5C20.6887 37.5 21.25 36.94 21.25 36.25C21.25 35.56 20.6887 35 20 35ZM20 40C17.9325 40 16.25 38.3175 16.25 36.25C16.25 34.1825 17.9325 32.5 20 32.5C22.0675 32.5 23.75 34.1825 23.75 36.25C23.75 38.3175 22.0675 40 20 40Z" fill="#00BFB3"/>
<path fill-rule="evenodd" clip-rule="evenodd" d="M35 35C34.3112 35 33.75 35.56 33.75 36.25C33.75 36.94 34.3112 37.5 35 37.5C35.6887 37.5 36.25 36.94 36.25 36.25C36.25 35.56 35.6887 35 35 35ZM35 40C32.9325 40 31.25 38.3175 31.25 36.25C31.25 34.1825 32.9325 32.5 35 32.5C37.0675 32.5 38.75 34.1825 38.75 36.25C38.75 38.3175 37.0675 40 35 40Z" fill="#00BFB3"/>
<path fill-rule="evenodd" clip-rule="evenodd" d="M16.25 7.5H23.75V5H16.25V7.5Z" fill="#00BFB3"/>
<path fill-rule="evenodd" clip-rule="evenodd" d="M16.25 12.5H23.75V10H16.25V12.5Z" fill="#00BFB3"/>
</svg>

<svg xmlns="http://www.w3.org/2000/svg" width="40" height="40" fill="none"><path fill="#535766" fill-rule="evenodd" d="M15 2.5c-.689 0-1.25.56-1.25 1.25v10c0 .69.561 1.25 1.25 1.25h10c.689 0 1.25-.56 1.25-1.25v-10c0-.69-.561-1.25-1.25-1.25zm10 15H15a3.755 3.755 0 0 1-3.75-3.75v-10A3.755 3.755 0 0 1 15 0h10a3.755 3.755 0 0 1 3.75 3.75v10A3.755 3.755 0 0 1 25 17.5M21.25 22.5V20h-2.5v2.5h-15V30h2.5v-5h12.5v5h2.5v-5h12.5v5h2.5v-7.5z" clip-rule="evenodd"/><path fill="#00BFB3" fill-rule="evenodd" d="M5 35c-.689 0-1.25.56-1.25 1.25S4.311 37.5 5 37.5s1.25-.56 1.25-1.25S5.689 35 5 35m0 5a3.755 3.755 0 0 1-3.75-3.75A3.755 3.755 0 0 1 5 32.5a3.755 3.755 0 0 1 3.75 3.75A3.755 3.755 0 0 1 5 40M20 35a1.251 1.251 0 0 0 0 2.5c.689 0 1.25-.56 1.25-1.25S20.689 35 20 35m0 5a3.755 3.755 0 0 1-3.75-3.75A3.755 3.755 0 0 1 20 32.5a3.755 3.755 0 0 1 3.75 3.75A3.755 3.755 0 0 1 20 40M35 35a1.251 1.251 0 0 0 0 2.5c.689 0 1.25-.56 1.25-1.25S35.689 35 35 35m0 5a3.755 3.755 0 0 1-3.75-3.75A3.755 3.755 0 0 1 35 32.5a3.755 3.755 0 0 1 3.75 3.75A3.755 3.755 0 0 1 35 40M16.25 7.5h7.5V5h-7.5zM16.25 12.5h7.5V10h-7.5z" clip-rule="evenodd"/></svg>
